X: 25341
T: Many A Wild Night
R: polka
M: 2/4
K: Gmajor
|:B/c/|dg gf/e/|dB BA/B/|ce ed/c/|BG G/A/B/c/|
dg gf/e/|dB BA/B/|ce ed|G2 G:|
|:B/A/|GD/G/ Bd|cA A/B/A/G/|FD/F/ Ac|BG G/c/B/A/|
GD/G/ Bd|cA AG|Fe ed|G2 G:|

